svg/color/amdon.svg

<svg width="40" height="40" viewBox="0 0 40 40" fill="none" xmlns="http://www.w3.org/2000/svg">
<g clip-path="url(#clip0_820_3783)">
<path d="M20 0C31.0457 0 40 8.9543 40 20C40 31.0457 31.0457 40 20 40C8.95431 40 7.90517e-06 31.0457 0 20C6.58765e-07 8.95431 8.95431 1.97595e-06 20 0Z" fill="#FBD2D3"/>
<path d="M26 6C30.4183 6 34 9.58172 34 14V26C34 30.4183 30.4183 34 26 34H14C9.58172 34 6 30.4183 6 26V14C6 9.58172 9.58172 6 14 6H26Z" fill="#ED1C24"/>
<g clip-path="url(#clip1_820_3783)">
<path d="M25.2699 17.6141L26.5691 18.9141H28.6991V21.045L29.9999 22.345V17.6141H25.2699ZM11.6666 17.9333L9.99994 22.0666H11.0908L11.3991 21.2483H13.2499L13.5899 22.0666H14.7049L12.8599 17.9333H11.6666ZM15.1741 17.9333V22.0625H16.2058V19.4858L17.3208 20.7875H17.4774L18.5924 19.4908V22.0666H19.6241V17.9333H18.7249L17.3983 19.4708L16.0724 17.9333H15.1741ZM20.4099 17.9333V22.0666H22.1241C23.7733 22.0666 24.5241 21.195 24.5241 20.0066C24.5241 18.8733 23.7433 17.9333 22.2349 17.9333H20.4099ZM21.4408 18.6916H22.1008C23.0758 18.6916 23.4591 19.2841 23.4591 20C23.4591 20.6066 23.1491 21.31 22.1124 21.31H21.4408V18.6916ZM12.2866 18.9191L12.9458 20.5291H11.6733L12.2866 18.9191ZM26.5674 19.175L25.2308 20.5108V22.3858H27.1024L28.4391 21.0466H26.5674V19.175Z" fill="white"/>
</g>
</g>
<defs>
<clipPath id="clip0_820_3783">
<rect width="40" height="40" fill="white"/>
</clipPath>
<clipPath id="clip1_820_3783">
<rect width="20" height="20" fill="white" transform="translate(10 10)"/>
</clipPath>
</defs>
</svg>

<svg xmlns="http://www.w3.org/2000/svg" width="40" height="40" fill="none" viewBox="0 0 40 40"><g clip-path="url(#amdon_svg-a)"><path fill="#FBD2D3" d="M20 0c11.046 0 20 8.954 20 20s-8.954 20-20 20S0 31.046 0 20 8.954 0 20 0"/><path fill="#ED1C24" d="M26 6a8 8 0 0 1 8 8v12a8 8 0 0 1-8 8H14a8 8 0 0 1-8-8V14a8 8 0 0 1 8-8z"/><g clip-path="url(#amdon_svg-b)"><path fill="#fff" d="m25.27 17.614 1.3 1.3h2.13v2.131l1.3 1.3v-4.73zm-13.603.32L10 22.066h1.09l.31-.819h1.85l.34.819h1.115l-1.845-4.134zm3.507 0v4.128h1.032v-2.576l1.115 1.302h.156l1.115-1.297v2.576h1.032v-4.134h-.9l-1.326 1.538-1.326-1.538zm5.236 0v4.133h1.714c1.65 0 2.4-.872 2.4-2.06 0-1.134-.78-2.074-2.29-2.074zm1.03.758h.66c.976 0 1.36.592 1.36 1.308 0 .607-.31 1.31-1.348 1.31h-.671zm-9.153.227.659 1.61h-1.273zm14.28.256-1.336 1.336v1.875h1.871l1.337-1.34h-1.872z"/></g></g><defs><clipPath id="amdon_svg-a"><path fill="#fff" d="M0 0h40v40H0z"/></clipPath><clipPath id="amdon_svg-b"><path fill="#fff" d="M10 10h20v20H10z"/></clipPath></defs></svg>
